X:1
T:L'aure dolci
T:Stefano Landi
T:Source : Arie---Sesto libro---Venetia---B.Magni---1638. Editor : André Vierendeels (21/08/17).
T:Notes : Origonal clefs : C1, F4 Editorial accidentals above the staff Note values have been halved
T:L'aure dolci
T:©
T:©
T:©
C:Stefano Landi
Z:©
%%score 1 2
L:1/8
Q:1/4=120
M:6/4
K:F
V:1 treble nm="Soprano" snm="S"
V:2 bass nm="MusicXML Part"
V:1
 dc BA BG A2 D2 d2- | d2 c3 B A3 A A2 | z2 A3 B c2 c2 c2 | c3 c c2 z2 c3 d | e2 f3 e e2 f3 f | %5
w: L'au- * * * * * * re dol-|* ci spi- ra- va- no|e gl'au- gel- li can-|ta- va- no, quan- do|l'al- ba spa- ri, quan- do|
w: Di _ _ _ _ _ _ ro- se'il|_ pra- to'in- fie- ra- fi,|l'au- re dol- ci spi-|ra- va- no, di stel-|le, di stel- le'il cie- li|
w: L'on- * * * * * * de del|_ ma- r'è le- pi- da,|l'on- de del ma- r'è|le- pi- da l'a- ria-|si, l'a- ria si fa piu|
 g2 f3 e e6 :: z4 e2 f2 f2 d2 | _e2 e2 c2 d3 d d2 | f8 e3 f | g4 d2 _e4 c2 | d4 _e2 c4 c2 | %11
w: l'al- ba spa- ri,|su Nin- fe, su|Nin- fe de- sta- te- vi|e'l bion- do|crin di va- ghi|fio- ri'or- na- te-|
w: in do- ra- fi,|quan- * do, quan-|* do il So- le s'en|va, So- *|le sen' va piu|bel- lo'è s'e- gli|
w: tre- * pi- da,|l'A- pril lie- to,|l'A- pril lie- to tor- no'el|fio- ri'à noi|por- to'ei fio- rià|noi, à noi por-|
 d6 z4 A2 | B2 B2 A2 B2 B2 c2 | d3 d d2 z2 d4- | d2 c3 d _e4 c2 | d4 _e2 A2 A2 BA | %16
w: vi, su|Nin- fe, su Nin- fe de-|sta- te- vi, e'l|_ bion- do crin di|va- ghi fio- ri or- *|
w: sta su|bel- la, su con- so- *|ma- mi- nin que-|* sto mio cor co|i tuol be- gl'oc- ch'im- *|
w: to su|Clo- ri su sa- et- *|ta- mi- ni, gia|_ ch'il fe- rir de|gl'oc- chi tuo- i di- *|
 Bc A3 G !fermata!G6 :| %17
w: * * na- te- vi.|
w: mo- * la- mi- ni.|
w: * * let- ta- mi.|
V:2
"^BC" G,6 ^F,6 |"^6 5""^4 3" G,2 C,4 D,6 |"^#3" D,6 E,6 | F,6 z2 F,3 F, | %4
"^#6""^#3" E,2 D,4 A,2 F,3 F, |"^#6""^#3" E,2 D,4 A,6 :: A,6 D,2 D,2 G,2 | C,2 F,4 B,,6 | %8
 B,2 A,3 G, A,6 | E,2 G,4 C,2 F,4 |"^7#6" B,,4 C,2 A,,6 | G,,6 D,6 | G,,4 D,2 G,4 F,2 | %13
 B,6 G,2 F,3 E, |"^4 3" F,6 C,2 F,4 | B,,2 C,4 D,4 C,2- | C,2 D,4 !fermata!G,,6 :| %17

